src/packages/tokens/img/link.svg

<svg width="24" height="24" viewBox="0 0 24 24" fill="none" xmlns="http://www.w3.org/2000/svg">
<g clip-path="url(#clip0_8_2932)">
<circle cx="12" cy="12" r="12" fill="#2A5ADA"/>
<path d="M12.0826 3.59998L10.5413 4.48621L6.34133 6.91374L4.80005 7.79998V16.2L6.34133 17.0862L10.5799 19.5137L12.1211 20.4L13.6624 19.5137L17.8239 17.0862L19.3652 16.2V7.79998L17.8239 6.91374L13.6239 4.48621L12.0826 3.59998ZM7.88262 14.4275V9.57245L12.0826 7.14493L16.2826 9.57245V14.4275L12.0826 16.855L7.88262 14.4275Z" fill="white"/>
</g>
<defs>
<clipPath id="clip0_8_2932">
<rect width="24" height="24" fill="white"/>
</clipPath>
</defs>
</svg>

<svg xmlns="http://www.w3.org/2000/svg" width="24" height="24" fill="none" xmlns:v="https://vecta.io/nano"><g clip-path="url(#A)"><circle cx="12" cy="12" r="12" fill="#2a5ada"/><path d="M12.083 3.6l-1.541.886-4.2 2.428L4.8 7.8v8.4l1.541.886 4.239 2.427 1.541.886 1.541-.886 4.161-2.427 1.541-.886V7.8l-1.541-.886-4.2-2.428-1.541-.886zm-4.2 10.828V9.572l4.2-2.428 4.2 2.428v4.855l-4.2 2.428-4.2-2.427z" fill="#fff"/></g><defs><clipPath id="A"><path fill="#fff" d="M0 0h24v24H0z"/></clipPath></defs></svg>
